X:1409
L:1/16
M:2/4
K:G
 D2 | G4 ge d2ed | B2gd edBA | G2ge d2ed | BcAF G2 :: D2 | G2B2 e2>g2 | fedf edBA | G2B2 e2>g2 | 
 fefa g2 :|

